X:0406
M:C
L:1/8
Q:1/4=100 "Maestosa"
K:D
f|(g>f)(ga)  b2  d'>b|(afTed)  e2 (d>e)|"_x".fz   (d>e) "_x".fz   d>e|"_x"(f<d) B2 "_x"(e<c)A2|
   d>ef>g    a<f d2  | b2 g>b  a<(fd>e)|    .A2  (Tc2{B/c/}) d3     :|

